src/images/circuits/belgian.svg

<svg width="40" height="25" viewBox="0 0 40 25" fill="none" xmlns="http://www.w3.org/2000/svg">
<path d="M16.3869 6.37885C16.8655 6.00788 25.9554 2.70399 30.3123 1.11134C30.499 1.04311 30.7055 1.09285 30.8428 1.23653L31.8257 2.26512C31.9604 2.40603 32.1647 2.45585 32.3491 2.39277L34.3247 1.7169C34.5125 1.65265 34.7202 1.70521 34.8545 1.8513C35.9423 3.03399 37.8876 5.13731 38.4465 5.69622C39.1955 6.44515 39.1955 6.98982 38.3785 7.5345C37.57 8.07343 36.5617 6.81264 36.0129 6.12646L35.9955 6.10473C35.4508 5.42388 34.9742 5.08346 34.2934 5.42388C33.6125 5.7643 28.3019 7.12599 26.6679 7.67067C25.0451 8.2116 25.1011 8.75251 25.302 10.6939L25.3062 10.7345C25.5105 12.7089 30.6168 13.8663 32.4551 14.411C34.2934 14.9557 33.5445 16.0451 33.2721 17.2025C32.9998 18.3599 35.7232 19.5174 36.2678 19.7216C36.6431 19.8624 37.3148 20.5183 37.7259 20.9586C37.8376 21.0783 37.8799 21.2461 37.8357 21.4038C37.6317 22.1307 37.1878 23.3435 36.6083 23.8748C35.7912 24.6237 34.021 24.2833 31.7743 23.3301C29.5275 22.3769 26.9403 18.1557 25.7147 16.6578C24.768 15.5007 21.6286 14.716 20.0245 14.4387C19.9172 14.4201 19.8074 14.4386 19.7112 14.4895L15.2755 16.8378C15.2451 16.854 15.213 16.8669 15.1799 16.8764L11.1645 18.0324C10.9204 18.1026 10.6624 17.9787 10.5647 17.7442L10.2806 17.0624C10.1624 16.7786 9.81839 16.6677 9.55667 16.8291L1.55719 21.7611C1.38919 21.8646 1.18862 21.6881 1.27004 21.5083L2.61328 18.5423C2.62718 18.5116 2.64416 18.4824 2.66394 18.4551L4.57709 15.8162C4.59806 15.7873 4.6213 15.7614 4.64792 15.7376C5.72837 14.7702 7.87996 12.7704 8.149 12.2323C8.48942 11.5515 8.96567 10.6664 10.3274 10.5302C11.6891 10.394 12.7786 9.03236 13.3232 8.69194C13.8679 8.35151 15.7743 6.85365 16.3869 6.37885Z" stroke="#FF0000"/>
</svg>

<svg width="40" height="25" fill="none" xmlns="http://www.w3.org/2000/svg"><path d="M16.387 6.379c.479-.371 9.568-3.675 13.925-5.268a.496.496 0 0 1 .53.126l.984 1.028a.5.5 0 0 0 .523.128l1.976-.676a.5.5 0 0 1 .53.134c1.087 1.183 3.033 3.286 3.592 3.845.748.75.748 1.294-.069 1.839-.808.538-1.816-.722-2.365-1.409l-.017-.021c-.545-.681-1.022-1.022-1.703-.681-.68.34-5.991 1.702-7.625 2.247-1.623.54-1.567 1.082-1.366 3.023l.004.04c.204 1.975 5.31 3.132 7.15 3.677 1.837.545 1.088 1.634.816 2.792-.272 1.157 2.451 2.314 2.996 2.519.375.14 1.047.796 1.458 1.237.112.12.154.287.11.445-.204.727-.648 1.94-1.228 2.47-.817.75-2.587.41-4.834-.544-2.247-.953-4.834-5.174-6.06-6.672-.946-1.157-4.085-1.942-5.69-2.22a.49.49 0 0 0-.313.051l-4.435 2.349a.492.492 0 0 1-.096.038l-4.015 1.156a.5.5 0 0 1-.6-.288l-.284-.682a.5.5 0 0 0-.724-.233l-8 4.932a.2.2 0 0 1-.287-.253l1.343-2.966a.5.5 0 0 1 .05-.087l1.914-2.639a.492.492 0 0 1 .07-.078c1.081-.968 3.233-2.968 3.502-3.506.34-.68.817-1.566 2.178-1.702 1.362-.136 2.452-1.498 2.996-1.838.545-.34 2.451-1.838 3.064-2.313Z" stroke="red"/></svg>
